Costumes/star1.svg

<?xml version="1.0" encoding="UTF-8" standalone="no"?>
<svg
   version="1.1"
   width="45.295933"
   height="44.38747"
   viewBox="-1.7939578 -0.65465778 45.295934 44.387472"
   id="svg5"
   sodipodi:docname="star1.svg"
   xmlns:inkscape="http://www.inkscape.org/namespaces/inkscape"
   xmlns:sodipodi="http://sodipodi.sourceforge.net/DTD/sodipodi-0.dtd"
   xmlns="http://www.w3.org/2000/svg"
   xmlns:svg="http://www.w3.org/2000/svg">
  <defs
     id="defs9" />
  <sodipodi:namedview
     id="namedview7"
     pagecolor="#ffffff"
     bordercolor="#000000"
     borderopacity="0.25"
     inkscape:showpageshadow="2"
     inkscape:pageopacity="0.0"
     inkscape:pagecheckerboard="0"
     inkscape:deskcolor="#d1d1d1" />
  <!-- Exported by Scratch - http://scratch.mit.edu/ -->
  <g
     id="ID0.4861416635103524"
     transform="translate(-1.9929784,-0.95950046)">
    <path
       id="Star"
       fill="#ffff00"
       stroke="#000000"
       stroke-width="1.28786"
       d="m 34.2454,43.7816 c -3.284,1.9833 -12.9326,-8.2681 -12.9326,-8.2681 0,0 -11.243,8.4819 -14.1459,5.9705 -2.9054,-2.5113 3.8662,-14.8593 3.8662,-14.8593 0,0 -11.5392,-8.0723 -10.0479,-11.6087 1.4913,-3.5391 15.3255,-0.9144 15.3255,-0.9144 0,0 4.1083,-13.4684 7.9332,-13.1464 3.8301,0.3245 5.6099,14.2952 5.6099,14.2952 0,0 14.0789,-0.255 14.9495,3.4849 0.8783,3.7374 -11.8586,9.7491 -11.8586,9.7491 0,0 4.5925,13.3139 1.3007,15.2972 z" />
    <path
       id="Star_1_"
       fill="#ffffff"
       d="m 27.8499,34.0119 c -1.6536,0.9968 -6.5037,-4.1572 -6.5037,-4.1572 0,0 -5.6485,4.2628 -7.1064,3.0007 -1.4578,-1.2621 1.9421,-7.4644 1.9421,-7.4644 0,0 -5.7953,-4.0594 -5.0484,-5.834 0.7496,-1.7773 7.6988,-0.4585 7.6988,-0.4585 0,0 2.0658,-6.769 3.9898,-6.6041 1.9215,0.1622 2.8127,7.1811 2.8127,7.1811 0,0 7.0781,-0.1263 7.5159,1.7514 0.4431,1.8803 -5.955,4.899 -5.955,4.899 0,0 2.3027,6.6892 0.6542,7.686 z"
       stroke-width="2.57572" />
  </g>
</svg>

<svg version="1.1" width="48.76341390609741" height="47.70741415023804" viewBox="-1.793957769870758 -0.654657781124115 48.76341390609741 47.70741415023804" xmlns="http://www.w3.org/2000/svg" xmlns:xlink="http://www.w3.org/1999/xlink">
  <!-- Exported by Scratch - http://scratch.mit.edu/ -->
  <g id="ID0.4861416635103524">
    <path id="Star" fill="#FFFF00" stroke="#000000" stroke-width="1.2878577709197998" d="M 34.2454 43.7816 C 30.9614 45.7649 21.3128 35.5135 21.3128 35.5135 C 21.3128 35.5135 10.0698 43.9954 7.1669 41.484 C 4.2615 38.9727 11.0331 26.6247 11.0331 26.6247 C 11.0331 26.6247 -0.5061 18.5524 0.9852 15.016 C 2.4765 11.4769 16.3107 14.1016 16.3107 14.1016 C 16.3107 14.1016 20.419 0.6332 24.2439 0.9552 C 28.074 1.2797 29.8538 15.2504 29.8538 15.2504 C 29.8538 15.2504 43.9327 14.9954 44.8033 18.7353 C 45.6816 22.4727 32.9447 28.4844 32.9447 28.4844 C 32.9447 28.4844 37.5372 41.7983 34.2454 43.7816 Z "/>
    <path id="Star_1_" fill="#FFFFFF" d="M 27.8499 34.0119 C 26.1963 35.0087 21.3462 29.8547 21.3462 29.8547 C 21.3462 29.8547 15.6977 34.1175 14.2398 32.8554 C 12.782 31.5933 16.1819 25.391 16.1819 25.391 C 16.1819 25.391 10.3866 21.3316 11.1335 19.557 C 11.8831 17.7797 18.8323 19.0985 18.8323 19.0985 C 18.8323 19.0985 20.8981 12.3295 22.8221 12.4944 C 24.7436 12.6566 25.6348 19.6755 25.6348 19.6755 C 25.6348 19.6755 32.7129 19.5492 33.1507 21.4269 C 33.5938 23.3072 27.1957 26.3259 27.1957 26.3259 C 27.1957 26.3259 29.4984 33.0151 27.8499 34.0119 Z " stroke-width="2.5757155418395996"/>
  </g>
</svg>
